X:70
T: Kit O'Connor's
S: Mulvihill - 1st Collection (114)
Z: B.Black
R: reel
L: 1/8
M: 4/4
K: A
E2 EG A2 (3cBA|eA (3cBA BAFA|E2 EG A2 dB|AF (3FEF dFAF|
(3EFE CE A,2 CE|c2 BA BAGE|CE (3EDE Ac (3cBc|BABc A3||
f ||eA (3cBA EAdf|eA (3cBA BAFf|ec (3cBc ac (3cBc|\
dBBA Bcdf|
ec (3cBc ac (3cBc|dBBA Bcde|affe fgaf|ecAc (3BcB AF||
